X:1
T:March EHo.065
T:March EHo.065
T:Bewlay
C:Bewlay
L:1/8
Q:1/4=120
M:4/4
K:Eb
V:1 treble 
V:1
!p! B2 | e3 e d>ef>d | e2 e>e e2 e>e!f! | d>ef>e d>cB>A | G2 [G,E]>[G,E] [G,E]2 z2 | %5
 e>ge>e e2 z e | d>fB>B B2 z!p! e | dbge dcB=A | B2 [DB]>[DB] [DB]2 ::!f! B>B | e2 e>e (e>_dcB) | %11
 c2 A>A A2!p! z c | f2 f>f (fedc) |!f! d2 [DB]>[DB] [DB]2 (c>d) | e2 e>e (e_dcB) | c2 d2 e2 (dc) | %16
 B>ec>A GFED | E2 [G,E]>[G,E] [G,E]2 :| %18

